svgs/sharp-solid/kit-medical.svg

<svg xmlns="http://www.w3.org/2000/svg" viewBox="0 0 576 512"><!--! Font Awesome Pro 6.6.0 by @fontawesome - https://fontawesome.com License - https://fontawesome.com/license (Commercial License) Copyright 2024 Fonticons, Inc. --><path d="M0 32L0 480l96 0L96 32 0 32zm128 0l0 448 320 0 0-448L128 32zM576 480l0-448-96 0 0 448 96 0zM256 160l64 0 0 64 64 0 0 64-64 0 0 64-64 0 0-64-64 0 0-64 64 0 0-64z"/></svg>

<svg xmlns="http://www.w3.org/2000/svg" viewBox="0 0 576 512"><!--! Font Awesome Pro 6.5.2 by @fontawesome - https://fontawesome.com License - https://fontawesome.com/license (Commercial License) Copyright 2024 Fonticons, Inc. --><path d="M0 32V480H96V32H0zm128 0V480H448V32H128zM576 480V32H480V480h96zM256 160h64v64h64v64H320v64H256V288H192V224h64V160z"/></svg>
